X: 3900
T: Blackberry Blossom, The
R: reel
M: 4/4
K: Gmajor
ge|dBAc BGGA|B2BA (3Bcd ge|dBAc BG~G2|eaag ageg|
dBAc BG~G2|DBBA B2ge|dBAc BG~G2|eaag agef||
g2gf gaba|~g3b agef|g2gd gbag|eaag agef|
~g3f gaba|gfgb ~a2ga|(3bag af gfed|eaag a2||

